X: 10573
M: C|
L: 1/8
K: F
|: c |\
faeg dfcf | BfAf Gggb |
afcf dfeg | fdcB AFFc |\
facf BfAf | cfaf egbg |\
afcf dbag | fdcB AFF :|


